X: 1
T: The One o'Clock Canon
C: Ian Brockbank
N: Tune for dance by the same name.
B: RSCDS 47-6
R: reel
Z: 2014 John Chambers <jc:trillian.mit.edu>
N: The 2nd g in bar 9 lacked its natural, but clearly needs one.
M: C|
L: 1/8
K: A
   G2 "A"|\
"D"AFDF "A"AGAc | "E"BAGB "A"A2Bc | "D"dcdf "A"ecAc | "E"BAGF E2FG |
   y4 \
"D"AFDA "E"BGEB | "A"cAce a2ga | "D"fa"A"ea "E"BdcB | "A"c2"D"A2 "A"A2 :|
|: fg "B"|\
"A"agae "A7"=gecA | "D"fdAf "A"e2fg | "D"aA"A"gA "D"fA"A"eA | "E"Bfec B2cd |
   y4 \
"A"eAGA "D"fAGA | "E"gefg "F#m"a2ga | "D"fa"A"ea "E7"BdcB | "A"c2"D"A2 "A"A2 :|
|: cB "C"|\
"A"c2e2 a2e2 | "D"fdAf "A"e2fg | "D"abaf "A"ecAc | "E"BdcA B2cd |
   y4 \
"A"eAGA "D"fAGA | "E"gefg "F#m"a2ga | "D"fa"A"ea "E7"BdcB | "A"c2"D"A2 "A"A2 :|
|: ag "D"|\
"A"abab "D"afdA | "D"fdAf "A"e2fg | "D"aA"A"gA "D"fA"A"eA | "E"Bfec B2cd |
   y4 \
"A"efec "D"fgfd | "E"gefg "F#m"a2ga | "D"fa"A"ea "E"BdcB | "A"c2"D"A2 "A"A2 :|
%%center Book47/4706-One_oClock_Canon-A-64-8.abc

%%sep 1 1 500
%%sep 1 1 500

